X: 6
T: As Covas Do Rei Cintolo
R: polka
M: 2/4
L: 1/8
K: Emin
EFGF|:E2B2 G2E2|F2B2 ABAG|F3E G2EG|F3D EFGF| E2B2 G2E2|F2B2 ABAF|G2EF GEFD|1E3B, EFGF:|2E3B, EFGA||B2B2 A2d2|B2G2 EFGB|A3B ABAG|F4 EFGA|B2B2 A2d2|B2G2 EFGB|A3F GEFD|1E3B, EFGA:|2E3B, EFGF||


Tune 2290	Setting 15655

